icons/circle/48/touchpad-indicator.svg

<svg xmlns="http://www.w3.org/2000/svg" viewBox="0 0 48 48">
 <defs>
  <linearGradient id="linearGradient3764" x1="1" x2="47" gradientUnits="userSpaceOnUse" gradientTransform="matrix(0,-1,1,0,-1.5e-6,47.999998)">
   <stop style="stop-color:#5b5b5b;stop-opacity:1"/>
   <stop offset="1" style="stop-color:#656565;stop-opacity:1"/>
  </linearGradient>
 </defs>
 <g>
  <path d="m 36.31 5 c 5.859 4.062 9.688 10.831 9.688 18.5 c 0 12.426 -10.07 22.5 -22.5 22.5 c -7.669 0 -14.438 -3.828 -18.5 -9.688 c 1.037 1.822 2.306 3.499 3.781 4.969 c 4.085 3.712 9.514 5.969 15.469 5.969 c 12.703 0 23 -10.298 23 -23 c 0 -5.954 -2.256 -11.384 -5.969 -15.469 c -1.469 -1.475 -3.147 -2.744 -4.969 -3.781 z m 4.969 3.781 c 3.854 4.113 6.219 9.637 6.219 15.719 c 0 12.703 -10.297 23 -23 23 c -6.081 0 -11.606 -2.364 -15.719 -6.219 c 4.16 4.144 9.883 6.719 16.219 6.719 c 12.703 0 23 -10.298 23 -23 c 0 -6.335 -2.575 -12.06 -6.719 -16.219 z" style="opacity:0.05"/>
  <path d="m 41.28 8.781 c 3.712 4.085 5.969 9.514 5.969 15.469 c 0 12.703 -10.297 23 -23 23 c -5.954 0 -11.384 -2.256 -15.469 -5.969 c 4.113 3.854 9.637 6.219 15.719 6.219 c 12.703 0 23 -10.298 23 -23 c 0 -6.081 -2.364 -11.606 -6.219 -15.719 z" style="opacity:0.1"/>
  <path d="m 31.25 2.375 c 8.615 3.154 14.75 11.417 14.75 21.13 c 0 12.426 -10.07 22.5 -22.5 22.5 c -9.708 0 -17.971 -6.135 -21.12 -14.75 a 23 23 0 0 0 44.875 -7 a 23 23 0 0 0 -16 -21.875 z" style="opacity:0.2"/>
 </g>
 <g>
  <path d="m 24 1 c 12.703 0 23 10.297 23 23 c 0 12.703 -10.297 23 -23 23 -12.703 0 -23 -10.297 -23 -23 0 -12.703 10.297 -23 23 -23 z" style="fill:url(#linearGradient3764);fill-opacity:1"/>
 </g>
 <g>
  <g>
   <!-- color: #656565 -->
   <g>
    <path d="m 19.215 13 c -3.42 0 -6.207 2.784 -6.207 6.207 l 0 7.793 -0.008 0 0 2 0.008 0 0 1.771 c 0 3.423 2.786 6.215 6.207 6.215 l 11.564 0 c 3.424 0 6.221 -2.791 6.221 -6.215 l 0 -11.564 c 0 -3.424 -2.798 -6.207 -6.221 -6.207 l -11.564 0 z m 0 1.799 11.564 0 c 2.452 0 4.414 1.957 4.414 4.408 l 0 7.793 -20.381 0 0 -7.793 c 0 -2.452 1.954 -4.408 4.402 -4.408 z m -4.402 14.201 9.188 0 0 6.188 -4.785 0 c -2.447 0 -4.402 -1.964 -4.402 -4.416 l 0 -1.771 z m 11.184 0 9.197 0 0 1.771 c 0 2.451 -1.963 4.416 -4.414 4.416 l -4.783 0 0 -6.188 z" mix-blend-mode="normal" isolation="auto" white-space="normal" solid-opacity="1" solid-color="#000000" style="visibility:visible;shape-rendering:auto;color-interpolation-filters:linearRGB;fill:#000;opacity:1;image-rendering:auto;fill-opacity:0.098;stroke:none;display:inline;color:#000;fill-rule:nonzero;color-rendering:auto;color-interpolation:sRGB"/>
    <path d="m 18.215 12 c -3.42 0 -6.208 2.785 -6.208 6.208 l 0 11.564 c 0 3.423 2.787 6.215 6.208 6.215 l 11.564 0 c 3.424 0 6.222 -2.791 6.222 -6.215 l 0 -11.564 c 0 -3.424 -2.799 -6.208 -6.222 -6.208 l -11.564 0 z m 0 1.799 11.564 0 c 2.452 0 4.415 1.958 4.415 4.408 l 0 11.564 c 0 2.451 -1.964 4.415 -4.415 4.415 l -11.564 0 c -2.447 0 -4.401 -1.963 -4.401 -4.415 l 0 -11.564 c 0 -2.452 1.953 -4.408 4.401 -4.408 z" mix-blend-mode="normal" isolation="auto" white-space="normal" solid-opacity="1" solid-color="#000000" style="visibility:visible;shape-rendering:auto;color-interpolation-filters:linearRGB;fill:#f9f9f9;opacity:1;image-rendering:auto;fill-opacity:1;stroke:none;display:inline;color:#000;fill-rule:nonzero;color-rendering:auto;color-interpolation:sRGB"/>
    <path d="m 13 26 22 0 0 2 -22 0 m 0 -2" style="fill:#f9f9f9;fill-opacity:1;stroke:none;fill-rule:nonzero"/>
    <path d="m 23 35 l 0 -8 l 1.996 0 l 0 8 m -1.996 0" style="fill:#f9f9f9;fill-opacity:1;stroke:none;fill-rule:nonzero"/>
   </g>
  </g>
 </g>
 <g>
  <path d="m 40.03 7.531 c 3.712 4.084 5.969 9.514 5.969 15.469 0 12.703 -10.297 23 -23 23 c -5.954 0 -11.384 -2.256 -15.469 -5.969 4.178 4.291 10.01 6.969 16.469 6.969 c 12.703 0 23 -10.298 23 -23 0 -6.462 -2.677 -12.291 -6.969 -16.469 z" style="opacity:0.1"/>
 </g>
</svg>

<svg xmlns="http://www.w3.org/2000/svg" viewBox="0 0 48 48">
  <defs>
    <linearGradient id="a" x1="1" x2="47" gradientUnits="userSpaceOnUse" gradientTransform="rotate(-90 24 24)">
      <stop stop-color="#5b5b5b"/>
      <stop offset="1" stop-color="#656565"/>
    </linearGradient>
  </defs>
  <path d="M36.31 5c5.859 4.062 9.688 10.831 9.688 18.5 0 12.426-10.07 22.5-22.5 22.5-7.669 0-14.438-3.828-18.5-9.688a23.24 23.24 0 0 0 3.781 4.969 22.923 22.923 0 0 0 15.469 5.969c12.703 0 23-10.298 23-23a22.92 22.92 0 0 0-5.969-15.469A23.216 23.216 0 0 0 36.31 5zm4.969 3.781A22.911 22.911 0 0 1 47.498 24.5c0 12.703-10.297 23-23 23a22.909 22.909 0 0 1-15.719-6.219C12.939 45.425 18.662 48 24.998 48c12.703 0 23-10.298 23-23 0-6.335-2.575-12.06-6.719-16.219z" opacity=".05"/>
  <path d="M41.28 8.781a22.923 22.923 0 0 1 5.969 15.469c0 12.703-10.297 23-23 23A22.92 22.92 0 0 1 8.78 41.281 22.911 22.911 0 0 0 24.499 47.5c12.703 0 23-10.298 23-23A22.909 22.909 0 0 0 41.28 8.781z" opacity=".1"/>
  <path d="M31.25 2.375C39.865 5.529 46 13.792 46 23.505c0 12.426-10.07 22.5-22.5 22.5-9.708 0-17.971-6.135-21.12-14.75a23 23 0 0 0 44.875-7 23 23 0 0 0-16-21.875z" opacity=".2"/>
  <path d="M24 1c12.703 0 23 10.297 23 23S36.703 47 24 47 1 36.703 1 24 11.297 1 24 1z" fill="url(#a)"/>
  <g>
    <path d="M19.215 13a6.215 6.215 0 0 0-6.207 6.207V27H13v2h.008v1.771c0 3.423 2.786 6.215 6.207 6.215h11.564c3.424 0 6.221-2.791 6.221-6.215V19.207C37 15.783 34.202 13 30.779 13H19.215zm0 1.799h11.564a4.391 4.391 0 0 1 4.414 4.408V27H14.812v-7.793a4.383 4.383 0 0 1 4.402-4.408zM14.813 29h9.188v6.188h-4.785a4.39 4.39 0 0 1-4.402-4.416v-1.771zm11.184 0h9.197v1.771a4.399 4.399 0 0 1-4.414 4.416h-4.783v-6.188z" white-space="normal" solid-color="#000000" fill-opacity=".098" color="#000"/>
    <path d="M18.215 12a6.217 6.217 0 0 0-6.208 6.208v11.564c0 3.423 2.787 6.215 6.208 6.215h11.564c3.424 0 6.222-2.791 6.222-6.215V18.208c0-3.424-2.799-6.208-6.222-6.208H18.215zm0 1.799h11.564a4.393 4.393 0 0 1 4.415 4.408v11.564a4.399 4.399 0 0 1-4.415 4.415H18.215a4.389 4.389 0 0 1-4.401-4.415V18.207a4.382 4.382 0 0 1 4.401-4.408z" white-space="normal" solid-color="#000000" fill="#f9f9f9" color="#000"/>
    <path d="M13 26h22v2H13m0-2" fill="#f9f9f9"/>
    <path d="M23 35v-8h1.996v8M23 35" fill="#f9f9f9"/>
  </g>
  <g>
    <path d="M40.03 7.531A22.922 22.922 0 0 1 45.999 23c0 12.703-10.297 23-23 23A22.92 22.92 0 0 1 7.53 40.031C11.708 44.322 17.54 47 23.999 47c12.703 0 23-10.298 23-23 0-6.462-2.677-12.291-6.969-16.469z" opacity=".1"/>
  </g>
</svg>
